assets/images/authors/default_avatar.svg

<svg width="256" height="256" viewBox="0 0 256 256" fill="none" xmlns="http://www.w3.org/2000/svg">
<rect width="256" height="256" fill="#a6a6a6"/>
<path d="M199.908 156.293L199.945 162.088C199.933 164.685 199.908 167.516 199.908 168.093C199.908 193.599 167.646 205.859 127.549 206H127.451C87.3542 205.859 55.0813 193.599 55.0813 168.093C55.0813 167.527 55.0563 164.7 55.0452 162.104L55.0812 112.482C51.815 108.426 48.2881 103.225 45 98.0508C49.1839 90.9125 54.3055 84.5332 59.7831 78.623C64.8648 81.1867 69.7977 84.091 74.4582 87.1815C76.7911 84.8575 79.4222 82.9564 81.9986 80.9693C84.5342 78.928 87.3874 77.4313 90.1021 75.6875C89.2932 69.6645 88.8943 63.7349 88.7344 57.5464C95.7248 54.0188 103.181 51.68 110.718 50C113.733 55.0732 116.485 60.5672 118.882 65.938C121.726 65.4616 124.581 65.285 127.446 65.2509H127.556C130.416 65.285 133.273 65.4616 136.117 65.938C138.515 60.5672 141.268 55.0732 144.279 50C151.82 51.68 159.275 54.0188 166.266 57.5464C166.106 63.7349 165.707 69.6645 164.9 75.6875C167.61 77.4313 170.467 78.928 173.001 80.9693C175.581 82.9564 178.208 84.8575 180.54 87.1815C185.201 84.091 190.135 81.1867 195.215 78.623C200.693 84.5332 205.818 90.9125 210 98.0508C207.263 102.469 203.691 107.721 199.919 112.482L199.908 156.293Z" fill="white"/>
</svg>

<svg xmlns="http://www.w3.org/2000/svg" width="256" height="256" fill="none"><path fill="#a6a6a6" d="M0 0h256v256H0z"/><path d="M199.908 156.293l.037 5.795-.037 6.005c0 25.506-32.262 37.766-72.359 37.907h-.098c-40.097-.141-72.37-12.401-72.37-37.907l-.036-5.989.036-49.622c-3.266-4.056-6.793-9.257-10.081-14.431 4.184-7.138 9.306-13.518 14.783-19.428 5.082 2.564 10.015 5.468 14.675 8.558 2.333-2.324 4.964-4.225 7.54-6.212 2.536-2.041 5.389-3.538 8.103-5.282-.809-6.023-1.208-11.953-1.368-18.141 6.99-3.528 14.447-5.866 21.984-7.546 3.015 5.073 5.767 10.567 8.164 15.938 2.844-.476 5.699-.653 8.564-.687h.11c2.86.034 5.717.211 8.561.687 2.398-5.371 5.151-10.865 8.162-15.938 7.541 1.68 14.996 4.019 21.987 7.546-.16 6.189-.559 12.118-1.366 18.141 2.71 1.744 5.567 3.24 8.101 5.282 2.58 1.987 5.207 3.888 7.539 6.212 4.661-3.091 9.595-5.995 14.675-8.558 5.478 5.91 10.603 12.289 14.785 19.428-2.737 4.418-6.309 9.67-10.081 14.431l-.011 43.811z" fill="#fff"/></svg>
